icons/svg/tag.svg

<svg width="24" height="24" viewBox="0 0 24 24" fill="none" xmlns="http://www.w3.org/2000/svg">
<path d="M20.1616 10.9255L13.7164 4.48038C13.2476 4.01154 12.6117 3.74815 11.9487 3.74815L6.74807 3.74815C5.09121 3.74815 3.74807 5.09129 3.74807 6.74815L3.74807 11.9487C3.74807 12.6118 4.01146 13.2477 4.4803 13.7165L10.9254 20.1617C12.4875 21.7238 15.0202 21.7238 16.5823 20.1617L18.3719 18.372L20.1616 16.5824C21.7237 15.0203 21.7237 12.4876 20.1616 10.9255Z" stroke="currentColor" stroke-width="1.5" stroke-linecap="round" stroke-linejoin="round"/>
<circle cx="7.73838" cy="7.7384" r="1.27725" transform="rotate(-45 7.73838 7.7384)" fill="currentColor"/>
</svg>

<svg xmlns="http://www.w3.org/2000/svg" width="24" height="24" fill="none" viewBox="0 0 24 24"><path stroke="currentColor" stroke-linecap="round" stroke-linejoin="round" stroke-width="1.5" d="M20.162 10.926 13.716 4.48a2.5 2.5 0 0 0-1.767-.732h-5.2a3 3 0 0 0-3 3v5.2a2.5 2.5 0 0 0 .731 1.768l6.445 6.446a4 4 0 0 0 5.657 0l1.79-1.79 1.79-1.79a4 4 0 0 0 0-5.657"/><circle cx="7.738" cy="7.738" r="1.277" fill="currentColor" transform="rotate(-45 7.738 7.738)"/></svg>
